X: 1
T: the Laird of Macintosh
T: Miss Douglas
O: 1884
B: Hunter Collection
B: Stewart-Robertson, The Athole Collection, 1884; p.182
R: strathspey
Z: 2007 John Chambers <jc:trillian.mit.edu>
M: C
L: 1/8
K: G
B/c/ \
| "G"d2 B>c "(Em)"d>c B<G | "Am"E2 c>A "D7"G>F E<D \
| "G"d>c B<g "Em"B<G G<B | "Am"e<c "D7"A>F "G"G3 :|
d \
| "G"g2 g>f "Am"e<a a>g | "D7"f>d e<f "G"g>d B<G \
| "G"g2 g>f "Am"e<a a>g | "D7"f>d e<f "G"g2 g>a |
| "Em"b>g "D"a>f "C"g<e "D"f>d | "Am"e<d d>B "D7"A>B c<e \
| "G"d>c B<g "Em"B<G G<B | "Am"e<c "D7"A>F "G"G3 |]
